img/Adobe_Corporate_logo 1.svg

<svg width="121" height="32" viewBox="0 0 121 32" fill="none" xmlns="http://www.w3.org/2000/svg">
<g clip-path="url(#clip0_98_1272)">
<path d="M13.3309 0H0V32L13.3309 0Z" fill="#FAD9C4"/>
<path d="M22.7104 0H36.024V32L22.7104 0Z" fill="#FAD9C4"/>
<path d="M18.0207 11.7941L26.5056 32H20.9388L18.4029 25.5669H12.1934L18.0207 11.7941Z" fill="#FAD9C4"/>
<path d="M57.7724 20.3499L59.3443 24.874C59.3964 24.9874 59.4745 25.0397 59.6135 25.0397H62.6357C62.8008 25.0397 62.8268 24.9612 62.8008 24.7956L56.5565 7.38779C56.5304 7.24832 56.5044 7.22217 56.3654 7.22217H52.6137C52.5095 7.22217 52.4487 7.30062 52.4487 7.41394C52.3965 8.32922 52.3184 8.60817 52.2055 8.87839L46.6386 24.7694C46.6126 24.9612 46.6734 25.0397 46.8297 25.0397H49.5306C49.6956 25.0397 49.7738 24.9874 49.8346 24.8217L51.3197 20.3499H57.7724ZM52.1794 17.3949C52.9958 14.9193 54.0727 11.7463 54.5069 9.93315H54.533C55.0714 11.8334 56.3394 15.5992 56.9126 17.3949H52.1794Z" fill="#FAD9C4"/>
<path d="M70.828 25.3099C72.452 25.3099 74.1803 25.0135 75.9346 24.2551C76.0735 24.2028 76.0996 24.1418 76.0996 24.0111C76.0475 23.5229 75.9867 22.8168 75.9867 22.2764V5.88847C75.9867 5.78387 75.9867 5.73157 75.8564 5.73157H72.9123C72.7994 5.73157 72.7473 5.78387 72.7473 5.92334V11.4761C72.287 11.4237 71.9657 11.3976 71.5836 11.3976C66.8331 11.3976 63.915 14.5444 63.915 18.4758C63.915 23.0348 66.9112 25.3099 70.828 25.3099ZM72.7473 22.2764C72.261 22.4333 71.7225 22.4943 71.1754 22.4943C69.0216 22.4943 67.2586 21.2739 67.2586 18.3102C67.2586 15.6864 69.0737 14.1347 71.4794 14.1347C71.9657 14.1347 72.3912 14.187 72.7473 14.3265V22.2764Z" fill="#FAD9C4"/>
<path d="M85.4918 11.3976C81.4361 11.3976 78.9263 14.5183 78.9263 18.3712C78.9263 21.8144 80.9237 25.3099 85.4311 25.3099C89.2436 25.3099 91.9185 22.4943 91.9185 18.284C91.9185 14.5706 89.6518 11.3976 85.4918 11.3976ZM85.3268 14.1347C87.6196 14.1347 88.5923 16.1135 88.5923 18.3712C88.5923 21.1606 87.1593 22.5466 85.4918 22.5466C83.4336 22.5466 82.2177 20.8119 82.2177 18.3101C82.2177 15.7386 83.5118 14.1347 85.3268 14.1347Z" fill="#FAD9C4"/>
<path d="M94.9625 5.73157C94.8496 5.73157 94.7715 5.78387 94.7715 5.92334V24.4731C94.7715 24.5515 94.8496 24.691 94.9625 24.7171C96.2566 25.1181 97.6114 25.3099 99.0096 25.3099C103.013 25.3099 106.904 22.8168 106.904 17.7959C106.904 14.1609 104.42 11.3976 100.529 11.3976C99.6349 11.3976 98.8012 11.5371 98.0716 11.7811L98.0369 5.94949C98.0369 5.75772 97.9848 5.73157 97.7937 5.73157H94.9625ZM103.578 18.1271C103.578 21.1345 101.528 22.5466 99.3135 22.5466C98.8533 22.5466 98.4451 22.5205 98.0716 22.4071V14.4921C98.4972 14.3265 99.0096 14.187 99.9562 14.187C102.093 14.187 103.578 15.5469 103.578 18.1271Z" fill="#FAD9C4"/>
<path d="M117.891 19.1034C119.211 19.1034 120.297 19.0772 120.67 18.9901C120.809 18.9639 120.861 18.9116 120.887 18.7983C120.965 18.5019 121 17.883 121 17.1246C121 14.5444 119.454 11.3976 115.459 11.3976C111.378 11.3976 109.111 14.7362 109.111 18.5019C109.111 21.8405 110.865 25.3099 115.781 25.3099C117.622 25.3099 118.812 25.0135 119.836 24.5253C119.941 24.473 119.993 24.3859 119.993 24.229V21.9713C119.993 21.8405 119.915 21.8144 119.836 21.8667C118.812 22.3025 117.7 22.5204 116.484 22.5204C113.731 22.5204 112.48 20.995 112.402 19.1034H117.891ZM112.402 16.7672C112.619 15.4423 113.453 14.004 115.32 14.004C117.379 14.004 117.917 15.7386 117.917 16.5232C117.917 16.5493 117.917 16.6626 117.917 16.7411C117.804 16.7672 117.457 16.7672 116.432 16.7672H112.402Z" fill="#FAD9C4"/>
</g>
<defs>
<clipPath id="clip0_98_1272">
<rect width="121" height="32" fill="white"/>
</clipPath>
</defs>
</svg>

<svg xmlns="http://www.w3.org/2000/svg" width="121" height="32" fill="none"><g fill="#FAD9C4" clip-path="url(#a)"><path d="M13.33 0H0v32zM22.71 0h13.314v32zM18.02 11.794 26.507 32h-5.567l-2.536-6.433h-6.21zM57.772 20.35l1.572 4.524c.052.113.13.166.27.166h3.022c.165 0 .19-.079.165-.244L56.556 7.388c-.026-.14-.052-.166-.19-.166h-3.752c-.104 0-.165.079-.165.192-.052.915-.13 1.194-.243 1.464L46.639 24.77c-.026.192.034.27.19.27h2.702c.165 0 .243-.052.304-.217l1.485-4.472zm-5.593-2.955c.817-2.476 1.894-5.649 2.328-7.462h.026c.538 1.9 1.806 5.666 2.38 7.462zM70.828 25.31c1.624 0 3.352-.296 5.107-1.055.138-.052.165-.113.165-.244a18 18 0 0 1-.113-1.735V5.888c0-.104 0-.156-.13-.156h-2.945c-.113 0-.165.052-.165.191v5.553a10 10 0 0 0-1.163-.078c-4.75 0-7.669 3.146-7.669 7.078 0 4.559 2.996 6.834 6.913 6.834m1.92-3.034c-.487.157-1.026.218-1.573.218-2.153 0-3.916-1.22-3.916-4.184 0-2.624 1.815-4.175 4.22-4.175.487 0 .912.052 1.268.191zM85.492 11.398c-4.056 0-6.566 3.12-6.566 6.973 0 3.443 1.998 6.939 6.505 6.939 3.813 0 6.487-2.816 6.487-7.026 0-3.713-2.266-6.886-6.426-6.886m-.165 2.737c2.293 0 3.265 1.978 3.265 4.236 0 2.79-1.433 4.176-3.1 4.176-2.058 0-3.274-1.735-3.274-4.237 0-2.571 1.294-4.175 3.109-4.175M94.963 5.732c-.113 0-.191.052-.191.191v18.55c0 .079.078.218.19.244 1.295.401 2.65.593 4.048.593 4.003 0 7.894-2.493 7.894-7.514 0-3.635-2.484-6.398-6.375-6.398-.894 0-1.728.14-2.457.383l-.035-5.832c0-.191-.052-.217-.243-.217zm8.615 12.395c0 3.008-2.05 4.42-4.264 4.42-.46 0-.869-.027-1.242-.14v-7.915c.425-.166.938-.305 1.884-.305 2.137 0 3.622 1.36 3.622 3.94M117.891 19.103c1.32 0 2.406-.026 2.779-.113.139-.026.191-.078.217-.192.078-.296.113-.915.113-1.673 0-2.58-1.546-5.727-5.541-5.727-4.081 0-6.348 3.338-6.348 7.104 0 3.339 1.754 6.808 6.67 6.808 1.841 0 3.031-.296 4.055-.785.105-.052.157-.14.157-.296v-2.258c0-.13-.078-.157-.157-.104-1.024.435-2.136.653-3.352.653-2.753 0-4.004-1.525-4.082-3.417zm-5.489-2.336c.217-1.325 1.051-2.763 2.918-2.763 2.059 0 2.597 1.735 2.597 2.52v.217c-.113.026-.46.026-1.485.026z"/></g><defs><clipPath id="a"><path fill="#fff" d="M0 0h121v32H0z"/></clipPath></defs></svg>
